X:62
T:Yallow Stockings
T:Yellow Stockings
M:9/4
L:1/4
Q:3/4=100
S:D.Wright, Extraordinary Collection, London 1713
Z:Pete Stewart, 2004 <www.hornpipemusic.co.uk>
K:C
B | c>BAAEAAEB | cA/B/cAEABGB | c>BAAEAAEA | B2GG>AGBG ||
B | c/B/c/d/eB2AAEA | c/B/c/d/e B2A BGB | c>deB2AAEA | BdgBdgBG ||
B | c>dagaA2B | c/B/c/d/egfgG2A | c>de/f/agaA2B | c>de/f/ g2dBG ||
B | c/d/c/B/A GEG C2B | cBAGEFG2B | c/d/c/B/AGE/F/GC2c | B2gd>ed/c/BG ||
B | cegc/d/e/f/gBGB | cegga/g/f/e/fdB | cegcegBGB | cBAGEGA,2 |]
% Output from ABC2Win  Version 2.1 f on 05/05/2004


